!!!COM: Bach, Johann Sebastian
!!!CDT: 1685/3//-1750/7/28/
!!!OTL@@DE: Hilf, Herr Jesu, lass gelingen
!!!AGN: 4-Part Chorale
!!!SCT: BH 368
!!!SCT: BWV 248
**harm	**root	**kern	**kern	**kern	**kern
*	*Iorgan	*Iorgan	*Iorgan	*Iorgan	*Iorgan
!	!	!bass	!tenor	!alto	!soprno
*M3/4	*M3/4	*M3/4	*M3/4	*M3/4	*M3/4
*MM60	*MM60	*MM60	*MM60	*MM60	*MM60
*k[]	*k[]	*k[]	*k[]	*k[]	*k[]
*C:	*C:	*C:	*C:	*C:	*C:
*>[A,A,B]	*>[A,A,B]	*>[A,A,B]	*>[A,A,B]	*>[A,A,B]	*>[A,A,B]
*>A	*>A	*>A	*>A	*>A	*>A
=1-	=1-	=1-	=1-	=1-	=1-
I	4FF	8C	4c	4e	4g
.	.	8D	.	.	.
Ib	2FF	4E	2G	2c	2e
.	.	4C	.	.	.
=2	=2	=2	=2	=2	=2
V	2CC	2GG	4.G	4c	2d
.	.	.	.	4B	.
.	.	.	8F	.	.
vi	4DD	4AA	4E	4c	4c
=3	=3	=3	=3	=3	=3
ii	4GG	8D	2F	4A	4f
.	.	8C	.	.	.
v7b	4CC	4BB-	.	4d	4.g
I	4FF	4C	8E	4c	.
.	.	.	16F	.	16a
.	.	.	16G	.	16b-
=4	=4	=4	=4	=4	=4
IV	2.BB-	8FF	4G	2.c	2.a
.	.	8GG	.	.	.
.	.	4AA	8F	.	.
.	.	.	8E	.	.
.	.	4FF	4F	.	.
=5	=5	=5	=5	=5	=5
I;	2.FF;	2.C;	2.E;	2.c;	2.g;
=6	=6	=6	=6	=6	=6
vi	4DD	4AA	4c	4e	4a
ii	2GG	4D	2A	2d	2f
.	.	4C	.	.	.
=7	=7	=7	=7	=7	=7
Vb	4CC	4BB	8G	4d	2g
.	.	.	8F	.	.
I	4FF	8C	4E	4c	.
.	.	8BB	.	.	.
vi	4DD	8AA	4E	4c	4c
.	.	8GG	.	.	.
=8	=8	=8	=8	=8	=8
IVb	8BB-	8AA	8A	8c	4f
V7b	8CC	8BB	8G	8d	.
I	2FF	4C	2G	4d	2e
.	.	4C	.	4c	.
=9	=9	=9	=9	=9	=9
V;	2.CC;	2.GG;	2.G;	2.B;	2.d;
*>B	*>B	*>B	*>B	*>B	*>B
!!linebreak: 2
=10:|!	=10:|!	=10:|!	=10:|!	=10:|!	=10:|!
V	4CC	8GG	2G	8d	4b
.	.	8AA	.	8c	.
Vb	4CC	4BB	.	4d	2g
V	4CC	4GG	4B	4d	.
=11	=11	=11	=11	=11	=11
I	2FF	8C	2G	4d	2e
.	.	8BB	.	.	.
.	.	4C	.	4c	.
IV	4BB-	4F	[4F	4c	4a
=12	=12	=12	=12	=12	=12
viioD7	4EE	4BB	4F]	4d	4g#
vib	4DD	4C	4E	4e	4.a
IVb	8BB-	4AA	8A	8f	.
vi7	8DD	.	8G	8e	16b
.	.	.	.	.	16cc
=13	=13	=13	=13	=13	=13
vii7d	4EE	4AA	4F	8d	2.b
.	.	.	.	8c	.
V7d/vi	4.AA	8GG#	8E	4.d	.
.	.	8FF#	8D	.	.
.	.	4GG#	4E	.	.
Vb/vi	8AA	.	.	8B	.
=14	=14	=14	=14	=14	=14
vi;	2.DD;	2.AA;	2.E;	2.c;	2.e;
=15	=15	=15	=15	=15	=15
IV	4BB-	8F	4.F	4c	4a
.	.	8E	.	.	.
viib	4EE	4D	.	4d	4b
.	.	.	8D	.	.
I	4FF	4C	4G	4e	4cc
=16	=16	=16	=16	=16	=16
Vb	4CC	8BB	2G	8d	4dd
.	.	8AA	.	8c	.
Vb	4CC	4BB	.	4d	4g
V7	4CC	4GG	4D	4B	4f
=17	=17	=17	=17	=17	=17
I	4FF	4C	2C	4G	4e
IV	4BB-	2FF	.	4F	4a
IV	4BB-	.	4A	4c	4f
=18	=18	=18	=18	=18	=18
V	4CC	8GG	4D	4c	2.d
.	.	8FF	.	.	.
V	2CC	2GG	4G	8B	.
.	.	.	.	8A	.
.	.	.	4F	4B	.
=19	=19	=19	=19	=19	=19
I;	2.FF;	2.CC;	2.E;	2.G;	2.c;
==	==	==	==	==	==
*-	*-	*-	*-	*-	*-
!!chor2scor: -l 2 -o %b.pmx
!!!YEC: Copyright 1994 by David Huron
!!!YEC: Changes/Additions 2001 by Craig Stuart Sapp
!!!YEN: United States of America
!!!SMA: 371 Bach Chorales, edited by Ludwig Erk, C.F. Peters
!!!PDT: 1850, 1865
!!!ONB: Harmony and Root analysis done manually
